images/portal/4255.svg

<?xml version="1.0" standalone="no"?><!DOCTYPE svg PUBLIC "-//W3C//DTD SVG 1.1//EN" "http://www.w3.org/Graphics/SVG/1.1/DTD/svg11.dtd"><svg xmlns:xlink="http://www.w3.org/1999/xlink" version="1.1" class="highcharts-root" style="font-family:arial;font-size:9pt;" xmlns="http://www.w3.org/2000/svg" width="485" height="415"><desc>Created with Highstock 5.0.14</desc><defs><clipPath id="highcharts-tg30fl2-7"><rect x="0" y="0" width="429" height="254" fill="none"></rect></clipPath><clipPath id="highcharts-tg30fl2-8"><rect x="0" y="0" width="429" height="254" fill="none"></rect></clipPath></defs><rect fill="#fbfbfb" class="highcharts-background" x="0" y="0" width="485" height="415" rx="0" ry="0"></rect><rect fill="none" class="highcharts-plot-background" x="46" y="90" width="429" height="254"></rect><g class="highcharts-label" style="cursor:pointer;" transform="translate(10,451)"><text x="0" y="0"><tspan>&gt; Indikator-Details</tspan></text></g><g class="highcharts-pane-group"></g><g class="highcharts-grid highcharts-xaxis-grid "><path fill="none" class="highcharts-grid-line" d="M 152.5 90 L 152.5 344" opacity="1"></path><path fill="none" class="highcharts-grid-line" d="M 260.5 90 L 260.5 344" opacity="1"></path><path fill="none" class="highcharts-grid-line" d="M 367.5 90 L 367.5 344" opacity="1"></path><path fill="none" class="highcharts-grid-line" d="M 474.5 90 L 474.5 344" opacity="1"></path><path fill="none" class="highcharts-grid-line" d="M 45.5 90 L 45.5 344" opacity="1"></path></g><g class="highcharts-grid highcharts-yaxis-grid "><path fill="none" stroke="#e6e6e6" stroke-width="1" class="highcharts-grid-line" d="M 46 344.5 L 475 344.5" opacity="1"></path><path fill="none" stroke="#e6e6e6" stroke-width="1" class="highcharts-grid-line" d="M 46 281.5 L 475 281.5" opacity="1"></path><path fill="none" stroke="#e6e6e6" stroke-width="1" class="highcharts-grid-line" d="M 46 217.5 L 475 217.5" opacity="1"></path><path fill="none" stroke="#e6e6e6" stroke-width="1" class="highcharts-grid-line" d="M 46 154.5 L 475 154.5" opacity="1"></path><path fill="none" stroke="#e6e6e6" stroke-width="1" class="highcharts-grid-line" d="M 46 89.5 L 475 89.5" opacity="1"></path></g><g class="highcharts-grid highcharts-yaxis-grid "></g><rect fill="none" class="highcharts-plot-border" x="46" y="90" width="429" height="254"></rect><g class="highcharts-axis highcharts-xaxis "><path fill="none" class="highcharts-axis-line" stroke="#ccd6eb" stroke-width="1" d="M 46 344.5 L 475 344.5"></path></g><g class="highcharts-axis highcharts-yaxis "><path fill="none" class="highcharts-axis-line" d="M 46 90 L 46 344"></path></g><g class="highcharts-axis highcharts-yaxis "><path fill="none" class="highcharts-axis-line" d="M 475 90 L 475 344"></path></g><g class="highcharts-series-group"><g class="highcharts-series highcharts-series-0 highcharts-column-series highcharts-color-undefined " transform="translate(46,90) scale(1 1)" clip-path="url(#highcharts-tg30fl2-8)"><rect x="25" y="189" width="26" height="66" fill="#FF8028" class="highcharts-point"></rect><rect x="132" y="189" width="26" height="66" fill="#FF8028" class="highcharts-point"></rect><rect x="239" y="188" width="26" height="67" fill="#FF8028" class="highcharts-point"></rect><rect x="346" y="188" width="26" height="67" fill="#FF8028" class="highcharts-point"></rect></g><g class="highcharts-markers highcharts-series-0 highcharts-column-series highcharts-color-undefined " transform="translate(46,90) scale(1 1)" clip-path="none"></g><g class="highcharts-series highcharts-series-1 highcharts-column-series highcharts-color-undefined " transform="translate(46,90) scale(1 1)" clip-path="url(#highcharts-tg30fl2-8)"><rect x="57" y="60" width="26" height="195" fill="#B375AB" class="highcharts-point"></rect><rect x="164" y="41" width="26" height="214" fill="#B375AB" class="highcharts-point"></rect><rect x="271" y="26" width="26" height="229" fill="#B375AB" class="highcharts-point"></rect><rect x="379" y="17" width="26" height="238" fill="#B375AB" class="highcharts-point"></rect></g><g class="highcharts-markers highcharts-series-1 highcharts-column-series highcharts-color-undefined " transform="translate(46,90) scale(1 1)" clip-path="none"></g></g><text x="10" text-anchor="start" class="highcharts-title" style="color:#000000;font-size:1.1em;font-weight:bold;fill:#000000;" y="20"><tspan>Siedlungsfläche</tspan></text><text x="10" text-anchor="start" class="highcharts-subtitle" style="color:#000000;font-size:0.9em;fill:#000000;" y="38"><tspan>Hektaren</tspan></text><g class="highcharts-legend" transform="translate(10,40)"><rect fill="none" class="highcharts-legend-box" rx="0" ry="0" x="0" y="0" width="323" height="38" visibility="visible"></rect><g><g><g class="highcharts-legend-item highcharts-column-series highcharts-color-undefined highcharts-series-0" transform="translate(12,7)"><text x="21" style="color:#333333;font-size:1em;font-weight:normal;cursor:pointer;fill:#333333;" text-anchor="start" y="15"><tspan>Kanton Basel-Stadt</tspan></text><rect x="2" y="4" width="12" height="12" fill="#FF8028" class="highcharts-point"></rect></g><g class="highcharts-legend-item highcharts-column-series highcharts-color-undefined highcharts-series-1" transform="translate(156.328125,7)"><text x="21" y="15" style="color:#333333;font-size:1em;font-weight:normal;cursor:pointer;fill:#333333;" text-anchor="start"><tspan>Kanton Basel-Landschaft</tspan></text><rect x="2" y="4" width="12" height="12" fill="#B375AB" class="highcharts-point"></rect></g></g></g></g><g class="highcharts-axis-labels highcharts-xaxis-labels "><text x="99.625" style="color:#000000;cursor:default;font-size:0.9em;fill:#000000;" text-anchor="middle" transform="translate(0,0)" y="363" opacity="1"><tspan>1982</tspan></text><text x="206.875" style="color:#000000;cursor:default;font-size:0.9em;fill:#000000;" text-anchor="middle" transform="translate(0,0)" y="363" opacity="1"><tspan>1994</tspan></text><text x="314.125" style="color:#000000;cursor:default;font-size:0.9em;fill:#000000;" text-anchor="middle" transform="translate(0,0)" y="363" opacity="1"><tspan>2005</tspan></text><text x="421.375" style="color:#000000;cursor:default;font-size:0.9em;fill:#000000;" text-anchor="middle" transform="translate(0,0)" y="363" opacity="1"><tspan>2014</tspan></text></g><g class="highcharts-axis-labels highcharts-yaxis-labels "><text x="31" style="color:#000000;cursor:default;font-size:0.9em;fill:#000000;" text-anchor="end" transform="translate(0,0)" y="349" opacity="1"><tspan>0</tspan></text><text x="31" style="color:#000000;cursor:default;font-size:0.9em;fill:#000000;" text-anchor="end" transform="translate(0,0)" y="285" opacity="1"><tspan>2.5k</tspan></text><text x="31" style="color:#000000;cursor:default;font-size:0.9em;fill:#000000;" text-anchor="end" transform="translate(0,0)" y="222" opacity="1"><tspan>5k</tspan></text><text x="31" style="color:#000000;cursor:default;font-size:0.9em;fill:#000000;" text-anchor="end" transform="translate(0,0)" y="158" opacity="1"><tspan>7.5k</tspan></text><text x="31" style="color:#000000;cursor:default;font-size:0.9em;fill:#000000;" text-anchor="end" transform="translate(0,0)" y="95" opacity="1"><tspan>10k</tspan></text></g><g class="highcharts-axis-labels highcharts-yaxis-labels "></g><text x="10" class="highcharts-credits" text-anchor="start" style="cursor:default;color:#000000;font-size:0.8em;fill:#000000;" y="400"><tspan>Quelle: Bundesamt für Statistik</tspan></text></svg>

<svg class="highcharts-root" xmlns="http://www.w3.org/2000/svg" width="485" height="415" font-family="arial" font-size="12">
    <defs>
        <clipPath id="a">
            <path fill="none" d="M0 0h429v254H0z"/>
        </clipPath>
    </defs>
    <rect fill="#fbfbfb" class="highcharts-background" width="485" height="415" rx="0" ry="0"/>
    <path fill="none" class="highcharts-plot-background" d="M46 90h429v254H46z"/>
    <text transform="translate(10 451)" class="highcharts-label" cursor="pointer">
        <tspan>&gt; Indikator-Details</tspan>
    </text>
    <g class="highcharts-grid highcharts-xaxis-grid">
        <path fill="none" class="highcharts-grid-line" d="M152.5 90v254m108-254v254m107-254v254m107-254v254M45.5 90v254"/>
    </g>
    <g class="highcharts-grid highcharts-yaxis-grid">
        <path fill="none" stroke="#e6e6e6" class="highcharts-grid-line" d="M46 344.5h429m-429-63h429m-429-64h429m-429-63h429m-429-65h429"/>
    </g>
    <path fill="none" class="highcharts-plot-border" d="M46 90h429v254H46z"/>
    <g class="highcharts-axis highcharts-xaxis">
        <path fill="none" class="highcharts-axis-line" stroke="#ccd6eb" d="M46 344.5h429"/>
    </g>
    <g class="highcharts-axis highcharts-yaxis">
        <path fill="none" class="highcharts-axis-line" d="M46 90v254"/>
    </g>
    <g class="highcharts-axis highcharts-yaxis">
        <path fill="none" class="highcharts-axis-line" d="M475 90v254"/>
    </g>
    <g class="highcharts-series-group">
        <g class="highcharts-series highcharts-series-0 highcharts-column-series highcharts-color-undefined" transform="translate(46 90)" clip-path="url(#a)">
            <path fill="#FF8028" class="highcharts-point" d="M25 189h26v66H25zm107 0h26v66h-26zm107-1h26v67h-26zm107 0h26v67h-26z"/>
        </g>
        <g class="highcharts-series highcharts-series-1 highcharts-column-series highcharts-color-undefined" transform="translate(46 90)" clip-path="url(#a)">
            <path fill="#B375AB" class="highcharts-point" d="M57 60h26v195H57zm107-19h26v214h-26zm107-15h26v229h-26zm108-9h26v238h-26z"/>
        </g>
    </g>
    <text x="10" class="highcharts-title" y="20" color="#000" font-size="1.1em" font-weight="700">
        <tspan>Siedlungsfläche</tspan>
    </text>
    <text x="10" class="highcharts-subtitle" y="38" color="#000" font-size=".9em">
        <tspan>Hektaren</tspan>
    </text>
    <g class="highcharts-legend" transform="translate(10 40)">
        <rect fill="none" class="highcharts-legend-box" rx="0" ry="0" width="323" height="38"/>
        <g class="highcharts-legend-item highcharts-column-series highcharts-color-undefined highcharts-series-0">
            <text x="21" y="15" color="#333" font-size="1em" font-weight="400" cursor="pointer" fill="#333" transform="translate(12 7)">
                <tspan>Kanton Basel-Stadt</tspan>
            </text>
            <path fill="#FF8028" class="highcharts-point" d="M14 11h12v12H14z"/>
        </g>
        <g class="highcharts-legend-item highcharts-column-series highcharts-color-undefined highcharts-series-1">
            <text x="21" y="15" color="#333" font-size="1em" font-weight="400" cursor="pointer" fill="#333" transform="translate(156.328 7)">
                <tspan>Kanton Basel-Landschaft</tspan>
            </text>
            <path fill="#B375AB" class="highcharts-point" d="M158.328 11h12v12h-12z"/>
        </g>
    </g>
    <g class="highcharts-axis-labels highcharts-xaxis-labels" text-anchor="middle" color="#000" cursor="default" font-size=".9em">
        <text x="99.625" y="363">
            <tspan>1982</tspan>
        </text>
        <text x="206.875" y="363">
            <tspan>1994</tspan>
        </text>
        <text x="314.125" y="363">
            <tspan>2005</tspan>
        </text>
        <text x="421.375" y="363">
            <tspan>2014</tspan>
        </text>
    </g>
    <g class="highcharts-axis-labels highcharts-yaxis-labels" text-anchor="end" color="#000" cursor="default" font-size=".9em">
        <text x="31" y="349">
            <tspan>0</tspan>
        </text>
        <text x="31" y="285">
            <tspan>2.5k</tspan>
        </text>
        <text x="31" y="222">
            <tspan>5k</tspan>
        </text>
        <text x="31" y="158">
            <tspan>7.5k</tspan>
        </text>
        <text x="31" y="95">
            <tspan>10k</tspan>
        </text>
    </g>
    <text x="10" class="highcharts-credits" y="400" cursor="default" color="#000" font-size=".8em">
        <tspan>Quelle: Bundesamt für Statistik</tspan>
    </text>
</svg>
